logos/geetest.svg

<?xml version="1.0" encoding="UTF-8"?>
<svg width="512px" height="140px" viewBox="0 0 512 140" version="1.1" xmlns="http://www.w3.org/2000/svg" preserveAspectRatio="xMidYMid">
    <title>GeeTest</title>
    <g>
        <path d="M139.023296,63.1675014 L95.2255529,63.1675014 C91.9139765,50.3083017 79.5820861,41.9239815 66.4413572,43.5974348 C53.3006283,45.2708886 43.4509429,56.4800013 43.4509429,69.7609258 C43.4509429,83.0418498 53.3006283,94.250963 66.4413572,95.9244163 C79.5820861,97.5978696 91.9139765,89.2135494 95.2255529,76.3543498 L125.607771,76.3543498 C122.767513,100.95298 104.266346,120.822394 79.9846086,125.351556 C55.7028707,129.880718 31.3124949,118.011669 19.8388846,96.0829388 C8.36527428,74.1542095 12.4885319,47.2880968 30.0066784,29.8321439 C47.524825,12.3761909 74.3458246,8.40790601 96.1462262,20.0465066 C92.6211911,29.8990526 96.7355438,40.8612212 105.86449,45.9395821 C114.993435,51.0179433 126.4478,48.7165296 132.92015,40.5035526 C139.392501,32.2905754 138.976235,20.5853864 131.936913,12.8554335 C124.897591,5.12548061 113.308834,3.64782784 104.56381,9.36515935 C77.2405262,-6.45117332 42.7282553,-1.89572645 20.4188184,20.4718768 C-1.8906185,42.8394799 -6.43440385,77.4419184 9.34053315,104.836708 C25.1154701,132.231497 57.2756776,145.587796 87.7509167,137.400943 C118.226156,129.214089 139.41787,101.525459 139.41787,69.8927941 C139.41787,67.2554246 139.286345,65.01366 139.023296,63.1675014 Z M69.7097505,82.9477742 C62.4458389,82.9477742 56.557275,77.0438212 56.557275,69.7609258 C56.557275,62.4780304 62.4458389,56.5740769 69.7097505,56.5740769 C76.9736621,56.5740769 82.8622259,62.4780304 82.8622259,69.7609258 C82.8622259,77.0438212 76.9736621,82.9477742 69.7097505,82.9477742 Z M116.137989,19.3871642 C119.329797,19.3871642 122.207318,21.3148877 123.428771,24.2714402 C124.650222,27.2279928 123.975061,30.631132 121.718112,32.8939793 C119.461163,35.1568267 116.066894,35.8337532 113.118048,34.609109 C110.169202,33.3844648 108.246504,30.4994228 108.246504,27.2992733 C108.246504,22.9295361 111.779642,19.3871642 116.137989,19.3871642 Z" fill="#347EFF"></path>
        <path d="M275.32782,100.153386 C275.47448,100.537956 275.47448,100.963257 275.32782,101.347827 C274.898759,101.464569 274.44642,101.464569 274.017359,101.347827 C269.177648,102.092207 264.29169,102.489727 259.396632,102.537589 L258.1727,102.542268 C255.612935,102.577851 253.056766,102.337584 250.548201,101.825604 C248.42874,101.354256 246.411087,100.504627 244.591563,99.3172769 C242.688755,98.0445807 241.23077,96.2068958 240.421915,94.0617355 C239.398397,91.3138754 238.913004,88.3939048 238.992322,85.4617584 L238.992322,56.9146127 C238.915976,53.9826734 239.401276,51.0632667 240.421915,48.314636 C241.223661,46.1654338 242.683228,44.3257544 244.591563,43.0590943 C246.411087,41.8717441 248.42874,41.0221154 250.548201,40.5507678 C252.80591,40.0899856 255.102177,39.849291 257.404922,39.8316996 L258.1727,39.8341031 C263.477042,39.8227996 268.774338,40.2221334 274.017359,41.0285445 C274.44642,40.9118026 274.898759,40.9118026 275.32782,41.0285445 C275.47448,41.4131148 275.47448,41.8384151 275.32782,42.2229854 L275.32782,47.5979709 C275.32782,48.5215116 274.581094,49.2701891 273.659961,49.2701891 L256.743106,49.2701891 C254.896825,49.0768479 253.050605,49.636466 251.620397,50.8229625 C250.481895,52.4591025 249.973952,54.4537444 250.190803,56.4368364 L250.190803,65.3951456 L272.706898,65.3951456 C273.628032,65.3951456 274.374757,66.1438231 274.374757,67.0673633 L274.374757,73.0395697 C274.374757,73.96311 273.628032,74.7117874 272.706898,74.7117874 L250.190803,74.7117874 L250.190803,85.4617584 C249.783605,87.6791622 250.300258,89.967011 251.620397,91.792297 C253.050605,92.9787935 254.896825,93.5384116 256.743106,93.3450709 L273.659961,93.3450709 C274.581094,93.3450709 275.32782,94.0937483 275.32782,95.0172886 L275.32782,100.153386 Z M324.009737,100.153386 C324.156398,100.537956 324.156398,100.963257 324.009737,101.347827 C323.580676,101.464569 323.128337,101.464569 322.699276,101.347827 C317.859615,102.092643 312.973629,102.4902 308.078554,102.53769 L306.854617,102.542268 C304.294852,102.577851 301.738683,102.337584 299.230119,101.825604 C297.111441,101.351789 295.094213,100.502339 293.27348,99.3172769 C291.370672,98.0445807 289.912687,96.2068958 289.103832,94.0617355 C288.080315,91.3138754 287.594921,88.3939048 287.674239,85.4617584 L287.674239,56.9146127 C287.594921,53.9824668 288.080315,51.0624957 289.103832,48.314636 C289.912687,46.1694753 291.370672,44.3317905 293.27348,43.0590943 C295.094213,41.8740326 297.111441,41.0245827 299.230119,40.5507678 C301.487827,40.0899856 303.784094,39.849291 306.086839,39.8316996 L306.854617,39.8341031 C312.15896,39.8227996 317.456255,40.2221334 322.699276,41.0285445 C323.128337,40.9118026 323.580676,40.9118026 324.009737,41.0285445 C324.156398,41.4131148 324.156398,41.8384151 324.009737,42.2229854 L324.009737,47.5979709 C324.009737,48.0414707 323.834016,48.466806 323.521232,48.7804078 C323.208448,49.0940092 322.784222,49.2701891 322.341878,49.2701891 L305.425023,49.2701891 C303.578742,49.0768479 301.732522,49.636466 300.302314,50.8229625 C299.163812,52.4591025 298.655869,54.4537444 298.87272,56.4368364 L298.87272,65.3951456 L321.388816,65.3951456 C322.309949,65.3951456 323.056675,66.1438231 323.056675,67.0673633 L323.056675,73.0395697 C323.056675,73.96311 322.309949,74.7117874 321.388816,74.7117874 L298.87272,74.7117874 L298.87272,85.4617584 C298.655869,87.4448509 299.163812,89.4394924 300.302314,91.0756323 C301.732522,92.2621288 303.578742,92.8217469 305.425023,92.6284063 L322.341878,92.6284063 C323.263011,92.6284063 324.009737,93.3770832 324.009737,94.3006239 L324.009737,100.153386 Z M373.256778,45.5470004 L357.05472,45.5470004 L357.05472,99.4163003 C357.190986,99.8027272 357.190986,100.224315 357.05472,100.610742 C356.713674,100.764039 356.323571,100.764039 355.982525,100.610742 L350.978948,100.610742 C350.637903,100.764039 350.247799,100.764039 349.906753,100.610742 C349.770487,100.224315 349.770487,99.8027272 349.906753,99.4163003 L349.906753,45.5470004 L333.228164,45.5470004 C332.840036,45.6667504 332.424965,45.6667504 332.036837,45.5470004 C331.887882,45.2459882 331.887882,44.8924592 332.036837,44.5914474 L332.036837,41.0081233 C331.883938,40.6661867 331.883938,40.2750632 332.036837,39.9331264 C332.422256,39.7965039 332.842745,39.7965039 333.228164,39.9331264 L373.256778,39.9331264 C374.289262,39.9331264 374.805504,40.4109029 374.805504,41.3664559 L374.805504,44.9497795 C374.805504,45.3479268 374.289262,45.5470004 373.256778,45.5470004 Z M415.22744,101.635621 C415.033985,101.69943 414.825231,101.69943 414.631776,101.635621 L398.310585,101.635621 C393.625943,101.968596 388.966392,100.705967 385.086846,98.0522972 C381.852761,94.9695086 380.225048,90.5587893 380.678934,86.1078848 L380.678934,55.4107451 C380.225048,50.9598406 381.852761,46.5491213 385.086846,43.4663327 C388.966392,40.8126632 393.625943,39.550034 398.310585,39.8830088 L415.108307,39.8830088 C415.301762,39.8192005 415.510516,39.8192005 415.703971,39.8830088 C415.764498,40.1180431 415.764498,40.3646394 415.703971,40.5996736 L415.702663,45.0017384 C415.692204,45.5470198 415.598075,45.7357708 414.750908,45.7357708 L398.548851,45.7357708 C396.767169,45.5404465 394.969557,45.5404465 393.187875,45.7357708 C392.033239,45.9597682 390.961936,46.4968196 390.090423,47.2885447 C389.369919,48.0070177 388.87324,48.9199753 388.66083,49.9163154 C388.147223,51.7010989 387.906223,53.5535879 387.946033,55.4107451 L387.946033,67.3551575 L413.440448,67.3551575 C413.821673,67.1958986 414.250551,67.1958986 414.631776,67.3551575 C414.79062,67.7373787 414.79062,68.1673777 414.631776,68.5495989 L414.631776,71.6551458 C414.79062,72.037367 414.79062,72.467366 414.631776,72.8495872 C414.250551,73.0088461 413.821673,73.0088461 413.440448,72.8495872 L387.946033,72.8495872 L387.946033,86.943994 C387.79846,88.2936511 387.79846,89.655437 387.946033,91.005094 C388.136362,92.0440706 388.634552,93.0014292 389.375627,93.7523089 C390.24714,94.5440339 391.318442,95.0810849 392.473079,95.3050823 C394.254761,95.500407 396.052372,95.500407 397.834054,95.3050823 L414.106546,95.3063931 C414.587652,95.3168793 414.870041,95.4112549 414.870041,96.2606353 L414.870041,100.560624 C415.131388,100.854527 415.260635,101.243281 415.22744,101.635621 Z M462.040864,85.8648518 C461.968877,87.6916779 461.648222,89.5000713 461.0878,91.2398373 C460.459516,93.2635163 459.356499,95.1066871 457.871218,96.6148233 C456.077409,98.3453601 453.919981,99.6513614 451.557178,100.437035 C448.299446,101.549113 444.87123,102.074799 441.430892,101.989809 C438.851657,102.13296 436.266497,102.13296 433.687262,101.989809 L427.61149,101.1537 C427.184225,101.283251 426.728294,101.283251 426.301029,101.1537 C426.20833,100.841962 426.20833,100.509884 426.301029,100.198147 L426.301029,96.4953791 C426.168419,96.1907361 426.168419,95.8444687 426.301029,95.5398261 C426.610819,95.4393842 426.944302,95.4393842 427.254091,95.5398261 L440.954361,95.5398261 C443.042348,95.5871139 445.126885,95.3459614 447.149265,94.8231614 C448.55819,94.4475574 449.862392,93.7528899 450.961515,92.7926112 C451.901169,91.9573995 452.600498,90.8850462 452.986771,89.6870638 C453.196696,88.3415448 453.196696,86.9714825 452.986771,85.6259639 C453.164247,84.6786943 453.164247,83.706574 452.986771,82.7593048 C452.594328,81.8248103 452.028335,80.9736017 451.318911,80.2509779 C450.67203,79.3588287 449.954945,78.5200397 449.174521,77.7426514 L444.409212,74.637104 L436.308183,69.7398952 C433.07684,67.88713 430.177597,65.505153 427.730623,62.6926916 C425.790156,60.2568901 424.776735,57.2086789 424.871436,54.0927149 C424.698158,49.9406413 426.568161,45.9676605 429.875013,43.4621876 C434.329822,40.8106712 439.476448,39.5622655 444.647479,39.878864 L459.062544,39.878864 C460.015608,39.878864 460.492137,40.4760847 460.492137,41.3121937 L460.492137,44.8955173 C460.492137,45.7714409 460.015608,46.2094025 459.062544,46.2094025 L444.766608,46.2094025 C441.540005,45.9819583 438.307278,46.5563439 435.355121,47.8816206 C433.317308,49.2519205 432.213888,51.6489128 432.495934,54.0927149 C432.302826,54.9982194 432.302826,55.9344253 432.495934,56.8399298 C432.9142,57.7244448 433.478036,58.5320296 434.163793,59.2288121 C435.028265,60.1260225 435.98689,60.9269639 437.022979,61.6176948 L441.073494,64.2454655 L448.697991,68.7843422 C450.822063,70.027689 452.852723,71.4249206 454.773765,72.9648864 C456.26787,74.1661441 457.626153,75.5279756 458.824277,77.0259868 C459.833068,78.2652044 460.600871,79.6832764 461.0878,81.2065309 C461.6368,82.7025678 461.958083,84.2729305 462.040864,85.8648518 Z M510.33214,45.5470004 L494.130081,45.5470004 L494.130081,99.4163003 C494.266346,99.8027272 494.266346,100.224315 494.130081,100.610742 C493.789037,100.764039 493.398932,100.764039 493.057888,100.610742 L488.054308,100.610742 C487.713264,100.764039 487.323158,100.764039 486.982115,100.610742 C486.84585,100.224315 486.84585,99.8027272 486.982115,99.4163003 L486.982115,45.5470004 L470.42266,45.5470004 C470.034528,45.6667504 469.619457,45.6667504 469.231329,45.5470004 C469.082376,45.2459882 469.082376,44.8924592 469.231329,44.5914474 L469.231329,41.0081233 C469.078433,40.6661867 469.078433,40.2750632 469.231329,39.9331264 C469.616748,39.7965039 470.037241,39.7965039 470.42266,39.9331264 L510.706981,39.9339559 C511.599579,39.9430801 512,40.0525705 512,41.3664559 L512,44.9497795 C512,45.1886679 511.404332,45.5470004 510.33214,45.5470004 Z M200.53459,52.8572573 C202.940501,50.3163466 206.337764,48.9626238 209.826947,49.1544894 C214.687868,49.0360149 219.468584,50.4114578 223.527217,53.0961456 C224.108772,53.6000154 224.970918,53.6000154 225.552474,53.0961456 L228.649926,48.7961573 C228.649926,48.0794922 229.364723,47.2433834 228.649926,46.5267187 C223.044442,42.1539669 216.140709,39.7991302 209.048721,39.8306595 L208.516486,39.8378478 C205.802211,39.8366817 203.106009,40.2804987 200.53459,41.1517332 C197.93537,42.0802483 195.516766,43.4543724 193.386624,45.2128336 C190.903378,47.3630595 189.015782,50.119569 187.906516,53.2155898 C186.501239,57.0374248 185.814558,61.087277 185.881259,65.1600022 L185.881259,77.1044147 C185.822119,80.5821813 186.304449,84.0479116 187.310852,87.3766094 C188.10469,90.0275885 189.398872,92.5010707 191.123101,94.662701 C194.082105,98.1736913 198.025143,100.712154 202.440715,101.948793 C204.671439,102.434992 206.948479,102.675307 209.231283,102.665457 C215.142015,102.882428 221.020199,101.695533 226.386403,99.2015777 C227.344587,98.7378554 227.948398,97.7599202 227.935129,96.6932512 L227.935129,67.1905524 C228.093973,66.8083312 228.093973,66.3783323 227.935129,65.9961111 C227.553904,65.8368522 227.125026,65.8368522 226.743802,65.9961111 L209.469549,65.9961111 C208.548416,65.9961111 207.80169,66.7447885 207.80169,67.6683287 L207.80169,73.6405352 C207.80169,74.5640754 208.548416,75.3127528 209.469549,75.3127528 L216.37925,75.3127528 L216.37925,91.0793773 C214.154458,91.8319834 211.817201,92.195609 209.469549,92.1543745 C206.139016,92.3040825 202.898298,91.0477301 200.53459,88.6904945 C198.109908,85.2050715 196.972493,80.981412 197.318005,76.7460821 L197.318005,64.8016697 C197.021086,60.5709274 198.154201,56.3632369 200.53459,52.8572573 Z" fill="#292F3A"></path>
    </g>
</svg>

<svg preserveAspectRatio="xMidYMid" viewBox="0 0 512 140" xmlns="http://www.w3.org/2000/svg">
  <path fill="#347EFF" d="M139.023 63.168H95.226c-3.312-12.86-15.644-21.244-28.785-19.57-13.14 1.673-22.99 12.882-22.99 26.163 0 13.28 9.85 24.49 22.99 26.163 13.141 1.674 25.473-6.71 28.785-19.57h30.382c-2.84 24.599-21.342 44.468-45.623 48.998-24.282 4.529-48.673-7.34-60.146-29.27-11.474-21.928-7.35-48.794 10.168-66.25 17.518-17.456 44.339-21.424 66.14-9.785-3.526 9.852.589 20.814 9.717 25.893 9.13 5.078 20.584 2.777 27.056-5.436 6.473-8.213 6.056-19.919-.983-27.649-7.04-7.73-18.628-9.207-27.373-3.49C77.24-6.45 42.728-1.895 20.419 20.472-1.891 42.839-6.434 77.442 9.34 104.837c15.774 27.394 47.935 40.75 78.41 32.564 30.475-8.187 51.667-35.876 51.667-67.508 0-2.638-.132-4.88-.395-6.725ZM69.71 82.948c-7.264 0-13.153-5.904-13.153-13.187 0-7.283 5.889-13.187 13.153-13.187s13.152 5.904 13.152 13.187c0 7.283-5.888 13.187-13.152 13.187Zm46.428-63.56a7.891 7.891 0 0 1 7.29 4.883 7.927 7.927 0 0 1-1.71 8.623 7.876 7.876 0 0 1-8.6 1.715 7.912 7.912 0 0 1-4.871-7.31c0-4.37 3.533-7.912 7.891-7.912Z"/>
  <path fill="#292F3A" d="M275.328 100.153c.146.385.146.81 0 1.195-.43.117-.882.117-1.31 0-4.84.744-9.726 1.142-14.621 1.19l-1.224.004a35.65 35.65 0 0 1-7.625-.716 18.083 18.083 0 0 1-5.956-2.509 10.984 10.984 0 0 1-4.17-5.255 22.868 22.868 0 0 1-1.43-8.6V56.915a22.987 22.987 0 0 1 1.43-8.6 10.865 10.865 0 0 1 4.17-5.256 18.083 18.083 0 0 1 5.956-2.508 35.65 35.65 0 0 1 6.857-.72l.768.003c5.304-.011 10.601.388 15.844 1.195.43-.117.882-.117 1.31 0 .147.384.147.81 0 1.194v5.375a1.67 1.67 0 0 1-1.667 1.672h-16.917a6.897 6.897 0 0 0-5.123 1.553 8.258 8.258 0 0 0-1.43 5.614v8.958h22.517a1.67 1.67 0 0 1 1.668 1.672v5.973a1.67 1.67 0 0 1-1.668 1.672H250.19v10.75a8.258 8.258 0 0 0 1.43 6.33 6.897 6.897 0 0 0 5.122 1.553h16.917a1.67 1.67 0 0 1 1.668 1.672v5.136Zm48.682 0c.146.385.146.81 0 1.195-.43.117-.882.117-1.31 0-4.84.745-9.726 1.142-14.621 1.19l-1.224.004a35.65 35.65 0 0 1-7.625-.716 18.202 18.202 0 0 1-5.957-2.509 10.984 10.984 0 0 1-4.17-5.255 22.868 22.868 0 0 1-1.429-8.6V56.915a22.868 22.868 0 0 1 1.43-8.6 10.984 10.984 0 0 1 4.17-5.256 18.202 18.202 0 0 1 5.956-2.508 35.65 35.65 0 0 1 6.857-.72l.768.003c5.304-.011 10.601.388 15.844 1.195.43-.117.882-.117 1.31 0 .147.384.147.81 0 1.194v5.375a1.666 1.666 0 0 1-1.668 1.672h-16.916a6.897 6.897 0 0 0-5.123 1.553 8.258 8.258 0 0 0-1.43 5.614v8.958h22.517a1.67 1.67 0 0 1 1.668 1.672v5.973a1.67 1.67 0 0 1-1.668 1.672h-22.516v10.75a8.258 8.258 0 0 0 1.43 5.614 6.897 6.897 0 0 0 5.122 1.552h16.917a1.67 1.67 0 0 1 1.668 1.673v5.852Zm49.247-54.606h-16.202v53.87c.136.386.136.807 0 1.194a1.307 1.307 0 0 1-1.072 0h-5.004a1.307 1.307 0 0 1-1.072 0 1.796 1.796 0 0 1 0-1.195V45.547h-16.679a2.02 2.02 0 0 1-1.191 0 1.078 1.078 0 0 1 0-.956v-3.583a1.317 1.317 0 0 1 0-1.075 1.783 1.783 0 0 1 1.191 0h40.029c1.032 0 1.549.478 1.549 1.433v3.584c0 .398-.517.597-1.55.597Zm41.97 56.089a.95.95 0 0 1-.595 0H398.31a20.808 20.808 0 0 1-13.224-3.584 14.474 14.474 0 0 1-4.408-11.944V55.41a14.474 14.474 0 0 1 4.408-11.945 20.808 20.808 0 0 1 13.224-3.583h16.797a.95.95 0 0 1 .596 0c.06.235.06.482 0 .717l-.001 4.402c-.01.545-.105.734-.952.734h-16.202a24.597 24.597 0 0 0-5.361 0 6.427 6.427 0 0 0-3.098 1.553 5.26 5.26 0 0 0-1.43 2.627 18.44 18.44 0 0 0-.714 5.495v11.944h25.494c.382-.16.81-.16 1.192 0 .159.382.159.812 0 1.195v3.105c.159.382.159.812 0 1.195-.381.159-.81.159-1.192 0h-25.494v14.094a18.682 18.682 0 0 0 0 4.061 5.26 5.26 0 0 0 1.43 2.747 6.427 6.427 0 0 0 3.097 1.553c1.782.195 3.58.195 5.361 0l16.273.001c.48.01.763.105.763.955v4.3c.261.294.39.682.357 1.075Zm46.814-15.771a20.114 20.114 0 0 1-.953 5.375 13.265 13.265 0 0 1-3.217 5.375 16.67 16.67 0 0 1-6.314 3.822 29.118 29.118 0 0 1-10.126 1.553c-2.58.143-5.165.143-7.744 0l-6.076-.836c-.427.13-.883.13-1.31 0a1.676 1.676 0 0 1 0-.956v-3.703a1.197 1.197 0 0 1 0-.955c.31-.1.643-.1.953 0h13.7a22.698 22.698 0 0 0 6.195-.717 9.523 9.523 0 0 0 3.813-2.03 7.049 7.049 0 0 0 2.025-3.106c.21-1.345.21-2.716 0-4.061a7.784 7.784 0 0 0 0-2.867 8.004 8.004 0 0 0-1.668-2.508 20.649 20.649 0 0 0-2.144-2.508l-4.766-3.106-8.1-4.897a33.375 33.375 0 0 1-8.578-7.047 13.161 13.161 0 0 1-2.86-8.6 12.674 12.674 0 0 1 5.004-10.63 25.798 25.798 0 0 1 14.772-3.584h14.416c.953 0 1.43.597 1.43 1.433v3.584c0 .875-.477 1.313-1.43 1.313h-14.296a19.612 19.612 0 0 0-9.412 1.673 6.576 6.576 0 0 0-2.86 6.21 6.586 6.586 0 0 0 0 2.748 8.72 8.72 0 0 0 1.669 2.389 17.285 17.285 0 0 0 2.859 2.389l4.05 2.627 7.625 4.54a50.508 50.508 0 0 1 6.076 4.18 26.244 26.244 0 0 1 4.05 4.061 12.79 12.79 0 0 1 2.264 4.18 15.94 15.94 0 0 1 .953 4.659Zm48.291-40.318H494.13v53.87c.136.386.136.807 0 1.194a1.307 1.307 0 0 1-1.072 0h-5.004a1.307 1.307 0 0 1-1.072 0 1.796 1.796 0 0 1 0-1.195V45.547h-16.56a2.02 2.02 0 0 1-1.19 0 1.078 1.078 0 0 1 0-.956v-3.583a1.317 1.317 0 0 1 0-1.075 1.783 1.783 0 0 1 1.19 0l40.285.001c.893.01 1.293.119 1.293 1.432v3.584c0 .239-.596.597-1.668.597Zm-309.797 7.31a11.897 11.897 0 0 1 9.292-3.703 23.781 23.781 0 0 1 13.7 3.942 1.546 1.546 0 0 0 2.025 0l3.098-4.3c0-.717.715-1.553 0-2.27a31.638 31.638 0 0 0-19.601-6.695l-.533.007a24.84 24.84 0 0 0-7.981 1.314 23.81 23.81 0 0 0-7.148 4.06 19.112 19.112 0 0 0-5.48 8.004 33.044 33.044 0 0 0-2.026 11.944v11.944a33.526 33.526 0 0 0 1.43 10.273 21.639 21.639 0 0 0 3.812 7.286 22.867 22.867 0 0 0 11.318 7.286c2.23.486 4.507.726 6.79.716a37.45 37.45 0 0 0 17.155-3.463 2.748 2.748 0 0 0 1.55-2.509V67.191a1.557 1.557 0 0 0 0-1.195 1.54 1.54 0 0 0-1.192 0H209.47a1.67 1.67 0 0 0-1.668 1.672v5.973a1.67 1.67 0 0 0 1.668 1.672h6.91v15.766a20.442 20.442 0 0 1-6.91 1.075 11.896 11.896 0 0 1-8.935-3.464 18.31 18.31 0 0 1-3.217-11.944V64.802a18.91 18.91 0 0 1 3.217-11.945Z"/>
</svg>
